img/intro/1.svg

<svg width="188" height="161" viewBox="0 0 188 161" fill="none" xmlns="http://www.w3.org/2000/svg">
<g filter="url(#filter0_f_273_66933)">
<path fill-rule="evenodd" clip-rule="evenodd" d="M153.018 22.1606L150.621 16.6498L150.715 16.8718L153.121 22.4027L153.018 22.1606ZM153.121 22.4027L150.723 16.892C150.731 16.916 150.74 16.9398 150.748 16.9636C150.636 16.6835 150.512 16.4065 150.375 16.1334C148.341 12.0893 143.865 9.70601 138.977 10.0496L126.052 10.9594C120.395 11.345 114.914 13.9918 111.143 18.1275L25.1864 112.314C23.4392 114.204 23.0131 116.841 24.0921 118.98L24.2709 119.335L26.5185 124.501L35.9533 143.222L36.1111 143.585C36.708 144.761 37.6571 145.644 38.7654 146.173L36.3597 140.643C36.3702 140.648 36.3806 140.653 36.3911 140.658L38.7861 146.163C38.9586 146.249 39.1493 146.326 39.3409 146.403L39.3588 146.444L39.8501 146.591L39.8503 146.592C39.8766 146.599 39.9036 146.606 39.9312 146.613C39.9745 146.624 40.019 146.634 40.0635 146.644C40.1362 146.661 40.2089 146.677 40.2765 146.696L37.8704 141.165C37.7353 141.128 37.6003 141.09 37.4452 141.061L37.445 141.061L36.9808 140.922L36.9713 140.9C37.3917 141.051 37.8299 141.159 38.2776 141.223L38.2806 141.229C38.2256 141.219 38.1743 141.21 38.1262 141.202C38.0381 141.187 37.9609 141.174 37.8921 141.157L40.2982 146.688C40.4335 146.725 40.5602 146.743 40.6868 146.76L40.6784 146.741L41.0584 146.793L38.6538 141.266C38.654 141.266 38.6542 141.266 38.6543 141.266L41.0587 146.792C41.0896 146.794 41.1235 146.797 41.1591 146.801L41.1594 146.801C41.236 146.807 41.3204 146.815 41.4009 146.813L41.4102 146.834C41.5082 146.84 41.6263 146.838 41.7445 146.835L39.3383 141.304C39.3216 141.304 39.3053 141.305 39.2893 141.305C39.2712 141.305 39.2535 141.305 39.236 141.305L39.1711 141.304C39.1173 141.303 39.0634 141.302 39.0046 141.304L38.9974 141.287C39.2257 141.295 39.4554 141.293 39.6853 141.279L42.0899 146.806C42.1877 146.812 42.3057 146.809 42.4151 146.787C42.4513 146.781 42.4922 146.777 42.5354 146.773L42.5355 146.773L42.5359 146.773L42.5362 146.773C42.5994 146.767 42.6673 146.76 42.7321 146.747L40.326 141.216C40.2166 141.239 40.1273 141.253 40.0094 141.256L40.0094 141.256C39.9117 141.276 39.8072 141.28 39.7162 141.277C40.8836 141.201 42.0563 140.834 43.098 140.164L43.1027 140.175C42.9199 140.3 42.7288 140.405 42.5375 140.511C42.3822 140.577 42.2454 140.636 42.1168 140.714L44.5229 146.245L44.5231 146.245C44.6643 146.184 44.8056 146.124 44.9585 146.035L44.9578 146.034C45.1448 145.931 45.3315 145.827 45.5102 145.705L45.5012 145.684C45.971 145.389 46.415 145.032 46.8247 144.596L44.4196 139.067C44.4197 139.067 44.4198 139.067 44.42 139.067L44.4208 139.066L46.8468 144.588L150.62 34.3867L150.618 34.3802C150.938 34.0327 151.238 33.6929 151.502 33.3223L151.502 33.3219C151.759 32.9738 151.996 32.6343 152.205 32.2833L149.803 26.7636C149.803 26.7633 149.804 26.7631 149.804 26.7629L152.205 32.2827C152.364 32.0399 152.509 31.7632 152.643 31.5059L152.643 31.5059L152.643 31.5059L152.679 31.4366L152.672 31.4207C152.8 31.1821 152.908 30.9506 153.009 30.7003L150.61 25.1854C150.61 25.1853 150.61 25.1853 150.61 25.1853L153.009 30.7003C153.102 30.4701 153.195 30.2399 153.279 29.9895L153.279 29.9899C153.315 29.8791 153.349 29.7632 153.383 29.6473C153.417 29.5314 153.452 29.4156 153.488 29.3047L153.487 29.3025C153.538 29.1467 153.574 28.9853 153.61 28.8292C153.625 28.7635 153.639 28.6987 153.655 28.6357L153.644 28.6102C153.693 28.409 153.741 28.2073 153.763 27.9952L151.37 22.4939C151.37 22.4932 151.37 22.4925 151.37 22.4918L153.764 27.9946C153.776 27.8823 153.79 27.775 153.804 27.6677C153.818 27.5605 153.831 27.4532 153.843 27.3409L151.449 21.8378C151.449 21.8375 151.449 21.8373 151.449 21.837L153.852 27.3608C153.854 27.2528 153.86 27.1426 153.867 27.0325C153.874 26.9223 153.881 26.8122 153.882 26.7042L153.882 26.7029C153.876 26.467 153.88 26.2512 153.883 26.0355L153.883 26.0353L153.883 26.035C153.878 25.7991 153.861 25.5919 153.835 25.3645L151.447 19.8749C151.447 19.8746 151.447 19.8743 151.447 19.8741L153.836 25.3644C153.832 25.207 153.811 25.0572 153.789 24.9074C153.778 24.8325 153.768 24.7576 153.759 24.6817L153.758 24.679C153.732 24.4525 153.678 24.2145 153.624 23.9766L151.218 18.4457C151.227 18.4877 151.235 18.5307 151.244 18.5746C151.221 18.4726 151.197 18.3709 151.171 18.2695C151.185 18.3216 151.198 18.3734 151.21 18.4247L153.616 23.9556L153.592 23.8585L153.592 23.8585C153.539 23.6359 153.488 23.4256 153.416 23.2065L151.042 17.8049C151 17.6658 150.955 17.5272 150.907 17.3893C150.943 17.4864 150.979 17.5819 151.01 17.6759L153.416 23.2068C153.324 22.9359 153.233 22.665 153.121 22.4027ZM148.858 28.1071C148.75 28.2408 148.638 28.3729 148.524 28.5034C148.639 28.3727 148.751 28.2413 148.858 28.1071ZM148.356 28.6908C148.303 28.7493 148.249 28.8074 148.194 28.8652L148.195 28.867C148.25 28.8081 148.303 28.7494 148.356 28.6908ZM44.321 139.17C44.0135 139.482 43.6845 139.76 43.3394 140.002C43.6894 139.77 44.0226 139.483 44.321 139.17ZM38.9199 141.284C38.8409 141.28 38.7618 141.275 38.6832 141.268C38.7583 141.283 38.8385 141.285 38.9199 141.284ZM38.63 141.264C38.5291 141.255 38.4285 141.243 38.3285 141.23C38.4218 141.259 38.5223 141.27 38.63 141.264ZM36.7736 140.825C36.7395 140.811 36.7055 140.798 36.6717 140.784C36.7052 140.798 36.7391 140.812 36.7736 140.825ZM36.2168 140.572C35.2526 140.074 34.4243 139.322 33.8516 138.326C34.4288 139.333 35.2552 140.081 36.2168 140.572ZM44.5033 146.254L42.0971 140.723C42.0665 140.736 42.0341 140.749 42.0005 140.761L41.9728 140.771C41.8877 140.803 41.797 140.836 41.7123 140.884L41.7045 140.866C41.6411 140.893 41.5755 140.915 41.5128 140.935L41.5126 140.935C41.4554 140.954 41.4008 140.972 41.3527 140.992L43.7588 146.523C43.8193 146.498 43.8769 146.479 43.9345 146.46L43.9347 146.46C43.986 146.444 44.0372 146.427 44.0905 146.406L44.0995 146.426L44.5033 146.254ZM43.7589 146.524L41.3527 140.993L41.2973 141.006C41.1913 141.031 41.0988 141.054 41.0125 141.09L43.4187 146.621C43.4734 146.61 43.5311 146.591 43.5887 146.573C43.6464 146.554 43.7041 146.535 43.7589 146.524ZM40.9922 141.099L43.3983 146.63L43.0697 146.699L43.0696 146.698L42.7416 146.767L40.3354 141.236L40.6641 141.167L40.6641 141.168L40.9922 141.099ZM39.6637 141.283L42.0699 146.814C41.9517 146.817 41.8336 146.819 41.7442 146.833L39.338 141.303C39.4562 141.3 39.5743 141.297 39.6637 141.283Z" fill="#1F1F54" fill-opacity="0.3"/>
</g>
<path fill-rule="evenodd" clip-rule="evenodd" d="M157.619 27.2457L160.025 32.7766L160.128 33.0187L157.722 27.4878L157.619 27.2457ZM157.721 27.4879L160.128 33.0188C160.238 33.2782 160.329 33.546 160.411 33.7943L160.415 33.802C160.487 34.0211 160.538 34.2314 160.591 34.4541L160.615 34.5507L160.615 34.551C160.669 34.7899 160.715 35.0086 160.749 35.256L160.75 35.2581C160.785 35.4794 160.813 35.6953 160.834 35.9059L160.845 35.9319C160.871 36.1595 160.888 36.3669 160.884 36.5829L160.881 36.5758L160.881 36.5771L160.884 36.5824L160.883 36.6294C160.892 36.8787 160.891 37.1196 160.882 37.3522C160.878 37.5264 160.872 37.6994 160.848 37.8651C160.83 38.0591 160.806 38.2467 160.778 38.4279L160.77 38.4961L160.777 38.5123C160.762 38.6529 160.736 38.7889 160.711 38.9211C160.703 38.9623 160.695 39.0032 160.688 39.0438L160.69 39.0472L160.682 39.0785C160.677 39.1039 160.673 39.1292 160.669 39.1544L160.665 39.1447C160.641 39.2363 160.612 39.344 160.583 39.4518L160.583 39.452C160.545 39.5916 160.507 39.7312 160.481 39.8359L160.488 39.8518C160.452 39.9627 160.418 40.0785 160.383 40.1944C160.353 40.2988 160.322 40.4031 160.29 40.5038L160.292 40.5081C160.207 40.7585 160.115 40.9888 160.022 41.219L160.022 41.219L159.93 41.0083L159.93 41.009L160.021 41.218C159.917 41.477 159.804 41.7159 159.671 41.9633L159.68 41.9846C159.536 42.2608 159.371 42.5455 159.206 42.8303L159.207 42.8313C159.176 42.8828 159.139 42.955 159.094 43.0438C158.831 43.5605 158.28 44.6408 157 45.4941L155.583 43.132L153.686 41.2355C153.771 41.1432 153.933 40.9564 154.135 40.7192L154 40.4941C154.108 40.3477 154.584 39.8215 155.115 39.2347L155.115 39.2347C155.845 38.4271 156.679 37.5049 156.8 37.3008L156.8 37.2998L156.8 37.2996C156.965 37.0148 157.129 36.7301 157.274 36.4539L157.265 36.4326C157.386 36.2138 157.511 35.9462 157.615 35.6871L158.304 37.2711L158.304 37.2691L157.616 35.6882C157.708 35.4583 157.801 35.2285 157.885 34.9786L157.884 34.9773L157.884 34.9773C157.925 34.8518 157.966 34.7264 158.004 34.6025L157.929 34.4424C157.956 34.358 158 34.2474 158.047 34.1311C158.076 33.731 158.113 33.2301 158.153 32.7107L158.153 32.7106L158.153 32.7106L158.153 32.7106C158.255 31.3471 158.368 29.8565 158.344 29.7284L158.343 29.726C158.309 29.4784 158.263 29.2596 158.209 29.0206L158.209 29.0203L158.185 28.9232C158.132 28.7033 158.082 28.4955 158.011 28.2794L158.008 28.2718C157.925 28.0211 157.833 27.7502 157.721 27.4879Z" fill="url(#paint0_linear_273_66933)"/>
<path d="M30.6654 128.685L33.0716 134.216C33.0371 134.135 33.0027 134.055 32.9683 133.974L30.5621 128.443C30.5966 128.524 30.631 128.604 30.6654 128.685Z" fill="#858585"/>
<path d="M40.8289 148.885L43.2466 154.388L33.0906 134.207L30.6643 128.685L40.8289 148.885Z" fill="url(#paint1_linear_273_66933)"/>
<path d="M155.182 39.6006L157.499 45.0354L52.9934 155.31L50.5958 149.799L155.182 39.6006Z" fill="url(#paint2_linear_273_66933)"/>
<path fill-rule="evenodd" clip-rule="evenodd" d="M47.3262 151.635L43.2226 151.2C42.2295 150.717 41.3724 149.938 40.8185 148.863L43.2247 154.394C45.4284 157.957 48.3909 158.078 50.9724 156.765C51.0843 156.717 51.1951 156.666 51.3004 156.602L51.2963 156.592C51.3276 156.574 51.3588 156.557 51.39 156.539C51.5432 156.467 51.6901 156.381 51.8307 156.281L51.8308 156.281C52.0624 156.143 52.2835 155.979 52.497 155.798C53.7063 154.876 54.7569 153.689 55.499 152.501L51.589 152.087L50.5936 149.799C50.2269 150.169 49.8344 150.48 49.4248 150.75L49.4247 150.75C49.24 150.876 49.0669 150.974 48.9054 151.043L48.9298 151.099C48.8896 151.113 48.8453 151.128 48.7998 151.143C48.6845 151.181 48.5613 151.222 48.4789 151.272L48.7002 151.78L48.6996 151.78L48.4696 151.252C48.3946 151.3 48.3119 151.33 48.2292 151.359C48.1879 151.374 48.1466 151.389 48.1062 151.407L48.1064 151.407C48.0505 151.43 47.997 151.447 47.9457 151.463L47.9457 151.463C47.8936 151.48 47.8438 151.496 47.7959 151.516L47.7954 151.515C47.7406 151.526 47.688 151.543 47.6354 151.559C47.5828 151.576 47.5301 151.592 47.4754 151.603L47.4969 151.653L47.496 151.653L47.4749 151.604L47.4748 151.604C47.4246 151.615 47.3744 151.625 47.3262 151.635Z" fill="url(#paint3_linear_273_66933)"/>
<g style="mix-blend-mode:lighten" filter="url(#filter1_f_273_66933)">
<path d="M157.375 26.7285C159.444 30.8533 158.657 35.9962 155.183 39.5996L50.7041 149.948C47.7962 152.976 42.5651 152.341 40.8203 148.865L30.6643 128.685C29.6829 126.719 30.0855 124.306 31.7142 122.586L120.765 28.4388C124.548 24.4414 129.945 21.8779 135.475 21.4748L145.954 20.7023C150.882 20.3415 155.358 22.7247 157.375 26.7285Z" fill="url(#paint4_linear_273_66933)" fill-opacity="0.6"/>
</g>
<path d="M157.375 26.7285C159.444 30.8533 158.657 35.9962 155.183 39.5996L50.7041 149.948C47.7962 152.976 42.5651 152.341 40.8203 148.865L30.6643 128.685C29.6829 126.719 30.0855 124.306 31.7142 122.586L120.765 28.4388C124.548 24.4414 129.945 21.8779 135.475 21.4748L145.954 20.7023C150.882 20.3415 155.358 22.7247 157.375 26.7285Z" fill="url(#paint5_linear_273_66933)"/>
<defs>
<filter id="filter0_f_273_66933" x="13.5029" y="0.0170898" width="150.38" height="156.821" filterUnits="userSpaceOnUse" color-interpolation-filters="sRGB">
<feFlood flood-opacity="0" result="BackgroundImageFix"/>
<feBlend mode="normal" in="SourceGraphic" in2="BackgroundImageFix" result="shape"/>
<feGaussianBlur stdDeviation="5" result="effect1_foregroundBlur_273_66933"/>
</filter>
<filter id="filter1_f_273_66933" x="22.7985" y="13.3302" width="143.045" height="145.894" filterUnits="userSpaceOnUse" color-interpolation-filters="sRGB">
<feFlood flood-opacity="0" result="BackgroundImageFix"/>
<feBlend mode="normal" in="SourceGraphic" in2="BackgroundImageFix" result="shape"/>
<feGaussianBlur stdDeviation="3.66813" result="effect1_foregroundBlur_273_66933"/>
</filter>
<linearGradient id="paint0_linear_273_66933" x1="163.241" y1="34.287" x2="156.366" y2="42.8043" gradientUnits="userSpaceOnUse">
<stop stop-color="#FAFDFF"/>
<stop offset="1" stop-color="#C6EFFF"/>
</linearGradient>
<linearGradient id="paint1_linear_273_66933" x1="41.6459" y1="151.617" x2="30.1579" y2="125.611" gradientUnits="userSpaceOnUse">
<stop stop-color="#73B7E8"/>
<stop offset="1" stop-color="#41A5E3"/>
</linearGradient>
<linearGradient id="paint2_linear_273_66933" x1="156.597" y1="43.3834" x2="51.7067" y2="155.103" gradientUnits="userSpaceOnUse">
<stop offset="0.0001" stop-color="#C6EFFF"/>
<stop offset="1" stop-color="#9BE2FD"/>
</linearGradient>
<linearGradient id="paint3_linear_273_66933" x1="54.1381" y1="149.31" x2="42.2791" y2="151.318" gradientUnits="userSpaceOnUse">
<stop stop-color="#9DE2FD"/>
<stop offset="1" stop-color="#67B6E4"/>
</linearGradient>
<linearGradient id="paint4_linear_273_66933" x1="168.69" y1="28.2573" x2="22.978" y2="127.476" gradientUnits="userSpaceOnUse">
<stop stop-color="#00B9FF"/>
<stop offset="1" stop-color="#B10AFF"/>
</linearGradient>
<linearGradient id="paint5_linear_273_66933" x1="260.728" y1="44.4401" x2="-41.8857" y2="106.286" gradientUnits="userSpaceOnUse">
<stop stop-color="#B0EBFF"/>
<stop offset="1" stop-color="#1BA4D8"/>
</linearGradient>
</defs>
</svg>

<svg width="188" height="161" fill="none" xmlns="http://www.w3.org/2000/svg"><g filter="url(#a)"><path fill-rule="evenodd" clip-rule="evenodd" d="m153.018 22.16-2.397-5.51.094.222 2.406 5.53-.103-.241Zm.103.243-2.398-5.511.025.072a10.76 10.76 0 0 0-.373-.83c-2.034-4.045-6.51-6.428-11.398-6.084l-12.925.91c-5.657.385-11.138 3.032-14.909 7.168l-85.957 94.186c-1.747 1.89-2.173 4.527-1.094 6.666l.179.355 2.247 5.166 9.435 18.721.158.363a5.737 5.737 0 0 0 2.654 2.588l-2.405-5.53.031.015 2.395 5.505c.173.086.363.163.555.24l.018.041.491.147v.001l.081.021.133.031c.072.017.145.033.212.052l-2.406-5.531c-.135-.037-.27-.075-.425-.104l-.464-.139-.01-.022c.42.151.859.259 1.307.323l.003.006-.155-.027c-.088-.015-.165-.028-.234-.045l2.406 5.531c.136.037.262.055.389.072l-.009-.019.38.052-2.404-5.527 2.405 5.526.1.009c.077.006.161.014.242.012l.01.021c.097.006.215.004.334.001l-2.407-5.531-.049.001h-.053l-.065-.001a3.08 3.08 0 0 0-.166 0l-.008-.017c.229.008.458.006.688-.008l2.405 5.527a1.3 1.3 0 0 0 .325-.019c.036-.006.077-.01.12-.014h.001c.063-.006.131-.013.196-.026l-2.406-5.531c-.11.023-.199.037-.317.04-.097.02-.202.024-.293.021a7.113 7.113 0 0 0 3.382-1.113l.005.011c-.183.125-.374.23-.566.336a3.247 3.247 0 0 0-.42.203l2.406 5.531c.141-.061.283-.121.435-.21v-.001c.187-.103.373-.207.552-.329l-.009-.021c.47-.295.914-.652 1.324-1.088l-2.405-5.529v-.001l2.427 5.522L150.62 34.387l-.002-.007c.32-.347.62-.687.884-1.058.257-.348.494-.688.703-1.039l-2.402-5.52h.001l2.401 5.52c.159-.243.304-.52.438-.777l.036-.07-.007-.015c.128-.239.236-.47.337-.72l-2.399-5.516 2.399 5.515c.093-.23.186-.46.27-.71.036-.11.07-.227.104-.343.034-.116.069-.231.105-.342l-.001-.003c.051-.155.087-.317.123-.473.015-.066.029-.13.045-.193l-.011-.026c.049-.201.097-.403.119-.615l-2.393-5.501v-.002l2.394 5.503c.012-.113.026-.22.04-.327.014-.107.027-.215.039-.327l-2.394-5.503v-.001l2.403 5.524a7.35 7.35 0 0 1 .015-.329c.007-.11.014-.22.015-.328v-.001c-.006-.236-.002-.452.001-.668a6.992 6.992 0 0 0-.048-.67l-2.388-5.49 2.389 5.49a3.769 3.769 0 0 0-.047-.458 8.173 8.173 0 0 1-.03-.225l-.001-.003a6.722 6.722 0 0 0-.134-.702l-2.406-5.531.026.129a10.73 10.73 0 0 0-.034-.15l2.406 5.53-.024-.096a7.899 7.899 0 0 0-.176-.653l-2.374-5.401c-.042-.14-.087-.278-.135-.416.036.097.072.193.103.287l2.406 5.53c-.092-.27-.183-.541-.295-.803Zm-4.263 5.704Zm-.502.584a9.727 9.727 0 0 1-.162.174l.001.002.161-.176ZM44.321 139.17c-.307.312-.636.59-.982.832.35-.232.684-.519.982-.832Zm-5.401 2.114a6.213 6.213 0 0 1-.237-.016c.075.015.156.017.237.016Zm-.29-.02a7.53 7.53 0 0 1-.302-.034.85.85 0 0 0 .302.034Zm-1.856-.439-.102-.041.102.041Zm-.557-.253a5.74 5.74 0 0 1-2.365-2.246 5.669 5.669 0 0 0 2.365 2.246Zm8.286 5.682-2.406-5.531a1.77 1.77 0 0 1-.096.038l-.028.01c-.085.032-.176.065-.26.113l-.008-.018a2.18 2.18 0 0 1-.192.069c-.058.019-.112.037-.16.057l2.406 5.531c.06-.025.118-.044.175-.063.052-.016.103-.033.157-.054l.008.02.404-.172Zm-.744.27-2.406-5.531-.056.013a1.823 1.823 0 0 0-.284.084l2.406 5.531c.054-.011.112-.03.17-.048.057-.019.115-.038.17-.049Zm-2.767-5.425 2.406 5.531-.328.069v-.001l-.328.069-2.407-5.531.33-.069v.001l.327-.069Zm-1.328.184 2.406 5.531c-.118.003-.236.005-.326.019l-2.406-5.53c.118-.003.236-.006.326-.02Z" fill="#1F1F54" fill-opacity=".3"/></g><path fill-rule="evenodd" clip-rule="evenodd" d="m157.619 27.246 2.406 5.53.103.243-2.406-5.531-.103-.242Zm.102.242 2.407 5.53c.11.26.201.528.283.776l.004.008c.072.22.123.43.176.652l.024.097c.054.239.1.458.134.705l.001.002c.035.221.063.437.084.648l.011.026c.026.227.043.435.039.65l-.003-.006v.001l.003.005-.001.047c.009.25.008.49-.001.723-.004.174-.01.347-.034.513a9.32 9.32 0 0 1-.07.563l-.008.068.007.016c-.015.14-.041.277-.066.41l-.023.122.002.003-.008.032-.013.075-.004-.01-.082.308c-.038.14-.076.28-.102.384l.007.016c-.036.11-.07.227-.105.342-.03.105-.061.21-.093.31l.002.004c-.085.25-.177.48-.27.711l-.092-.21.091.209a7.254 7.254 0 0 1-.35.745l.009.022c-.144.276-.309.56-.474.845l.001.001a3.692 3.692 0 0 0-.113.213c-.263.517-.814 1.597-2.094 2.45l-1.417-2.362-1.897-1.896c.085-.093.247-.28.449-.517l-.135-.225c.108-.146.584-.672 1.115-1.26.73-.807 1.564-1.73 1.685-1.933V37.3c.165-.285.329-.57.474-.846l-.009-.021c.121-.22.246-.487.35-.746l.689 1.584v-.002l-.688-1.58c.092-.23.185-.46.269-.71l-.001-.002c.041-.125.082-.25.12-.374l-.075-.16c.027-.085.071-.196.118-.312.029-.4.066-.9.106-1.42.102-1.364.215-2.854.191-2.983l-.001-.002a8.09 8.09 0 0 0-.134-.705l-.024-.098c-.053-.22-.103-.427-.174-.644l-.003-.007a9.994 9.994 0 0 0-.287-.784Z" fill="url(#b)"/><path d="m30.665 128.685 2.407 5.531-.104-.242-2.406-5.531.103.242Z" fill="#858585"/><path d="m40.829 148.885 2.418 5.503-10.156-20.181-2.427-5.522 10.165 20.2Z" fill="url(#c)"/><path d="m155.182 39.6 2.317 5.435L52.993 155.31l-2.397-5.511L155.182 39.601Z" fill="url(#d)"/><path fill-rule="evenodd" clip-rule="evenodd" d="m47.326 151.635-4.103-.435a5.263 5.263 0 0 1-2.404-2.337l2.406 5.531c2.203 3.563 5.166 3.684 7.747 2.371.112-.048.223-.099.328-.163l-.004-.01.094-.053c.153-.072.3-.158.44-.258.232-.138.453-.302.667-.483a12.728 12.728 0 0 0 3.002-3.297l-3.91-.414-.995-2.288a7.25 7.25 0 0 1-1.17.951 3.095 3.095 0 0 1-.519.293l.025.056-.13.044a1.703 1.703 0 0 0-.321.129l.221.508-.23-.528a1.13 1.13 0 0 1-.24.107c-.042.015-.083.03-.124.048-.056.023-.109.04-.16.056-.052.017-.102.033-.15.053v-.001c-.055.011-.108.028-.16.044a1.448 1.448 0 0 1-.16.044l.02.05-.021-.049-.149.031Z" fill="url(#e)"/><g style="mix-blend-mode:lighten" filter="url(#f)"><path d="M157.375 26.729c2.069 4.124 1.282 9.267-2.192 12.87L50.704 149.949c-2.908 3.028-8.139 2.393-9.884-1.083l-10.156-20.18c-.981-1.966-.579-4.379 1.05-6.099l89.051-94.147c3.783-3.998 9.18-6.561 14.71-6.964l10.479-.773c4.928-.36 9.404 2.023 11.421 6.026Z" fill="url(#g)" fill-opacity=".6"/></g><path d="M157.375 26.729c2.069 4.124 1.282 9.267-2.192 12.87L50.704 149.949c-2.908 3.028-8.139 2.393-9.884-1.083l-10.156-20.18c-.981-1.966-.579-4.379 1.05-6.099l89.051-94.147c3.783-3.998 9.18-6.561 14.71-6.964l10.479-.773c4.928-.36 9.404 2.023 11.421 6.026Z" fill="url(#h)"/><defs><linearGradient id="b" x1="163.241" y1="34.287" x2="156.366" y2="42.804" gradientUnits="userSpaceOnUse"><stop stop-color="#FAFDFF"/><stop offset="1" stop-color="#C6EFFF"/></linearGradient><linearGradient id="c" x1="41.646" y1="151.617" x2="30.158" y2="125.611" gradientUnits="userSpaceOnUse"><stop stop-color="#73B7E8"/><stop offset="1" stop-color="#41A5E3"/></linearGradient><linearGradient id="d" x1="156.597" y1="43.383" x2="51.707" y2="155.103" gradientUnits="userSpaceOnUse"><stop offset="0" stop-color="#C6EFFF"/><stop offset="1" stop-color="#9BE2FD"/></linearGradient><linearGradient id="e" x1="54.138" y1="149.31" x2="42.279" y2="151.318" gradientUnits="userSpaceOnUse"><stop stop-color="#9DE2FD"/><stop offset="1" stop-color="#67B6E4"/></linearGradient><linearGradient id="g" x1="168.69" y1="28.257" x2="22.978" y2="127.476" gradientUnits="userSpaceOnUse"><stop stop-color="#00B9FF"/><stop offset="1" stop-color="#B10AFF"/></linearGradient><linearGradient id="h" x1="260.728" y1="44.44" x2="-41.886" y2="106.286" gradientUnits="userSpaceOnUse"><stop stop-color="#B0EBFF"/><stop offset="1" stop-color="#1BA4D8"/></linearGradient><filter id="a" x="13.503" y=".017" width="150.38" height="156.821" filterUnits="userSpaceOnUse" color-interpolation-filters="sRGB"><feFlood flood-opacity="0" result="BackgroundImageFix"/><feBlend in="SourceGraphic" in2="BackgroundImageFix" result="shape"/><feGaussianBlur stdDeviation="5" result="effect1_foregroundBlur_273_66933"/></filter><filter id="f" x="22.799" y="13.33" width="143.045" height="145.894" filterUnits="userSpaceOnUse" color-interpolation-filters="sRGB"><feFlood flood-opacity="0" result="BackgroundImageFix"/><feBlend in="SourceGraphic" in2="BackgroundImageFix" result="shape"/><feGaussianBlur stdDeviation="3.668" result="effect1_foregroundBlur_273_66933"/></filter></defs></svg>
